X:1
T:Title
%%score ( 1 2 ) { 3 | 4 }
L:1/8
Q:1/4=95
M:6/8
K:Ab
V:1 treble nm="Grand Piano, Soprano"
V:2 treble 
V:3 bass nm="Choir Pad, Djibouti, 87.87 D"
V:4 bass 
V:1
 [CE][CE][DF] [CE] [Ec]2 | [EA] [EA]2- [EA] [EG]2 | EE[EG] [EB] [Ed]2 | %3
w: By~Willard~P.~Morris,~1895 * * * *|||
 [EG] [EA]2- [EA]2- [EA]/ z/ | [CE][CE][EA] [Ec] [Ee]2 | [_Ge] [Fe]2- [Fe] [Fd]2 | %6
w: |||
 [FB]AG [EA] [Ec]2 | [DB] [CA]2- [CA]2- [CA]/ z/ | z e2- e3 | [Ed] [Ec]2- [Ec]2- [Ec]/ z/ | %10
w: ||||
 z3 z .B2 | [=DF] E2- E2- E/ z/ | [DE][CE][EA] [Ec] [Ee]2 | [_Ge] [Fe]2- [Fe] [Fd]2 | z .A2 z3 | %15
w: |||||
 [DB] [CA]2- [CA]3- | [CA]3 z3 |] %17
w: ||
V:2
 x6 | x6 | x6 | x6 | x6 | x6 | z E2 z3 | x6 | .c3 E E2 | x6 | A B2 B=D-[DA] | x6 | x6 | x6 | %14
 [FB]E-[EG] [EA] [Ec]2 | x6 | x6 |] %17
V:3
 A,A,A, A, A,2 | C C2- C B,2 | G,[K:bass]G,B, G, B,2 | D[K:treble] C2- C2- C/ z/ | %4
 A,A,C[K:bass] A, A,2 | A, A,2- A, A,2 | DCB, C A,2 | G, A,2- A,2- A,/ z/ | z3 G,G,A, | %9
 B, A,2 A, A,2 | A, B,2 B, F,2 | A, G,2 A, B,2 | B,A,C A, A,2 | A, A,2- A, A,2 | DCB, C A,2 | %15
 G, A,2- A,3- | A,3 z3 |] %17
V:4
 A,,A,,A,, A,, A,,2 | A,, E,2- E, E,2 | E,E,E, E, E,2 | E, A,2- A,2- A,/ z/ | z2 A, z C,2 | %5
 C, D,2- D, D,2 | D, E,2 E, E,2 | E, A,,2- A,,2- A,,/ z/ | z3 E,E,F, | .G,3 A,, A,,2 | %10
 A,, B,,2 B,, B,,2 | B,, E,2 F, G,2 | .G,2 A, z C,2 | C, D,2- D, D,2 | D, E,2 E, E,2 | %15
 E, A,,2- A,,3- | A,,3 z3 |] %17

